Sources/FrostedUI/Resources/Icons.xcassets/calendarXSize24.imageset/calendar-x-size-24.svg

<svg
  width="24"
  height="24"
  viewBox="0 0 24 24"
  fill="none"
  xmlns="http://www.w3.org/2000/svg"
  data-fui-icon="true"
>
  <path
    d="M7.75 4.75V2.75M16.25 4.75V2.75M9.49802 10L14.4997 15.0017M14.5017 10L9.5 15.0017M5.75 20.25H18.25C19.3546 20.25 20.25 19.3546 20.25 18.25V6.75C20.25 5.64543 19.3546 4.75 18.25 4.75H5.75C4.64543 4.75 3.75 5.64543 3.75 6.75V18.25C3.75 19.3546 4.64543 20.25 5.75 20.25Z"
    stroke="currentColor"
    stroke-width="1.5"
    stroke-linecap="round"
    stroke-linejoin="round"
  />
</svg>

<svg xmlns="http://www.w3.org/2000/svg" width="24" height="24" fill="none" data-fui-icon="true" viewBox="0 0 24 24"><path stroke="currentColor" stroke-linecap="round" stroke-linejoin="round" stroke-width="1.5" d="M7.75 4.75v-2m8.5 2v-2M9.498 10l5.002 5.002M14.502 10 9.5 15.002M5.75 20.25h12.5a2 2 0 0 0 2-2V6.75a2 2 0 0 0-2-2H5.75a2 2 0 0 0-2 2v11.5a2 2 0 0 0 2 2"/></svg>
